X:231
T: DAS SCHIFF STREICHT DURCH DIE WELLEN
N: B0718
O: Europa, Mitteleuropa, Deutschland; Italien
R: Heimat - Lied, Sehnsucht
M: 2/4
L: 1/16
K: G
D2 | G2G2A2A2 | B3dA2AB | G4z2
D2 | G2G2A2A2 | B3dA2AB | G4z2
D2 | c2c2c2ed | d2BBcB
AG | AAAABAGF | G2GABdcc | G4z2
D2 | c2c2c2ed | d2BBcB
AG | AAAABAGF | G2GABdcc | G4z2

@@@ Tune index: 2449
